X:1
T:Wohlfahrt Violin Studies - #1
T:Wohlfahrt Foundation Studies - No. 8
T:Op 74 No 1
T:Franz Wohlfahrt
C:Franz Wohlfahrt
%%score 1 { 2 | 3 }
L:1/8
Q:1/4=110
M:4/4
K:C
V:1 treble nm="Violin"
V:2 treble nm="Piano"
V:3 bass 
V:1
!f!"^8." c e B d c e B d | c G E G A G E C | G, B, D C B, A G E | F e d c B a g B | %4
 c e B d c e B d | c G E G A G E C | B, G ^F E D G B e | d ^f b a g d B c | d e ^c e d e c e | %9
 d ^f a f d A B =c | B d c e d g ^f a | g b a ^f g d B c | d e ^c e d e c e | d ^f a f d A B =c | %14
 B d c e d g ^f a | g b a ^f g d B G | E B, C D C A, B, C | E B, C D C E A G | ^F A c d e d ^f b | %19
 a g d ^c e d B G | ^F A c d e d ^f b | a g d ^c e d B G | =F G E G F G, B, D | F G E G F G, B, D | %24
 F G E G F G E G | F G, B, D F B e d | c e B d c e B d | c G E F A G E C | G, B, D C B, A G E | %29
 F e d c B a g B | c e B d c e B d | c G E G c e B d | c G E C B, A, B, G, | C2 z2 z4 :| %34
V:2
"C"!f! ce"G"Bd"C" ce"G"Bd |"C" cGEG AGEC |"G" G,B,DC B,AGE |"G" Fedc BagB |"C" ce"G"Bd"C" ce"G"Bd | %5
"C" cGEG AGEC |"G/D" B,G^FE DGBe |"D7" d^fba"G" gdBc |"D" de^ce dece | d^faf dAB=c | %10
"G" Bdce dg^fa | gba^f gdBc |"D" de^ce dece | d^faf dAB=c |"G" Bdce dg^fa | gba^f gdBc | %16
"C" EB,CD CA,B,C | EB,CD CEAG |"D" ^FAcd ed^fb |"G" agd^c edBG |"D" ^FAcd ed^fb | agd^c edBG | %22
"G7" =FGEG FG,B,D | FGEG FG,B,D | FGEG FGEG | FG,B,D FBed |"C" ce"G"Bd"C" ce"G"Bd |"G" cGEF AGEC | %28
"G" G,B,DC B,AGE |"G" Fedc BagB |"C" ce"G"Bd"C" ce"G"Bd |"C" cGEG ceBd | cGEC B,A,B,G, | %33
 C2 z2 z4 :| %34
V:3
 [C,E,G,]2 [D,F,G,]2 [C,E,G,]2 [D,F,G,]2 | [C,E,G,]4 z4 | [G,,B,,D,]8 | [G,,B,,D,]8 | %4
 [C,E,G,]2 [D,F,G,]2 [C,E,G,]2 [D,F,G,]2 | [C,E,G,]4 z4 | [B,,D,G,]8 | [D,^F,A,]4 [G,B,D]4 | %8
 [D,^F,A,]4 [D,F,A,]4 | [D,^F,A,]4 [D,F,A,]4 | [G,B,D]4 [G,B,D]4 | [G,B,D]4 [G,B,D]4 | %12
 [D,^F,A,]4 [D,F,A,]4 | [D,^F,A,]4 [D,F,A,]4 | [G,B,D]4 [G,B,D]4 | [G,B,D]4 [G,B,D]4 | %16
 [C,E,G,]4 [C,E,G,]4 | [C,E,G,]4 [C,E,G,]4 | [D,^F,A,]4 [D,F,A,]4 | [G,B,D]4 [G,B,D]4 | %20
 [D,^F,A,]4 [D,F,A,]4 | [G,B,D]4 [G,B,D]4 | [G,,B,,D,F,]8 | [G,,B,,D,F,]8 | [G,,B,,D,F,]8 | %25
 [G,,B,,D,F,]8 | [C,E,G,]2 [D,F,G,]2 [C,E,G,]2 [D,F,G,]2 | [C,E,G,]4 z4 | [G,,B,,D,]8 | %29
 [G,,B,,D,]8 | [C,E,G,]2 [D,F,G,]2 [C,E,G,]2 [D,F,G,]2 | [C,E,G,]2 z2 [C,E,G,]2 [D,F,G,]2 | %32
 [C,E,G,]4 [G,,B,,D,]4 | [C,E,G,]4 z4 :| %34

